!!!!SEGMENT: Jos/Jos0703c.b-Missa_Dung_aultre_amer-Credo--Jena_31.krn
!!!COM: Josquin des Prez
!!!CDT: ~1450-1521/08/27
!!!OPR: Missa D'ung aultre amer
!!!ONM: 3
!!!OTL: Credo
!!!AGN: Mass; Credo
!!!SCT: NJE 7.3
!!!SCA: New Josquin Edition 7.3
!!!jrpid: Jos0703c.b
!!!voices: 4
!!!ONB1: Jena 31, anon.; evidently a first draft for what would become the Credo of the cyclic mass
**kern	**text	**kern	**text	**kern	**text	**kern	**text
*part4	*	*part3	*	*part2	*	*part1	*
*staff4	*	*staff3	*	*staff2	*	*staff1	*
*Ivox	*	*Ivox	*	*Ivox	*	*Ivox	*
*I"Bassus	*	*I"Tenor	*	*I"Altus	*	*I"Superius	*
*I'B	*	*I'T	*	*I'A	*	*I'S	*
*clefF4	*	*clefGv2	*	*clefGv2	*	*clefG2	*
*k[b-]	*	*k[b-]	*	*k[b-]	*	*k[b-]	*
*M2/1	*	*M2/1	*	*M2/1	*	*M2/1	*
*met(C|)	*	*met(C|)	*	*met(C|)	*	*met(C|)	*
*MM260	*	*MM260	*	*MM260	*	*MM260	*
=	=	=	=	=	=	=	=
!	!	!	!	!	!	!LO:TX:Z=8:t=S quotes Okeghem song discantus	!
!	!	!	!	!	!	!LO:TX:Z=25:t=Jena 31 (anon.); evidently a first draft for what would become the Credo of the cyclic mass	!
1GG	Pa-	1G	Pa-	1d	Pa-	0g	Pa-
2GG	-trem	2B-	-trem	2d	trem	.	.
2GG	om-	2B-	om-	2e	om-	.	.
=3	=3	=3	=3	=3	=3	=3	=3
2D	-ni-	2A	-ni-	2f	-ni-	1a	-trem
2D	-po-	2A	-po-	2f	-po-	.	.
2GG	-ten	1B-	-ten	1d	-ten	1g	om-
[2G	.	.	.	.	.	.	.
=4	=4	=4	=4	=4	=4	=4	=4
4G]	.	2G	-tem	2B-	-tem	1.dd	-ni-
4A	.	.	.	.	.	.	.
1B-	-tem	2G	fac-	1d	fac-	.	.
.	.	2B-	-to-	.	.	.	.
4A	fac-	2B-	-rem	2e	.	4cc	-po-
4G	.	.	.	.	.	4b-	.
=5	=5	=5	=5	=5	=5	=5	=5
2F	-to-	0c	ce-	2.f	-to-	1a	-ten-
2F	-rem	.	.	.	.	.	.
.	.	.	.	4f	-rem	.	.
2F	ce-	.	.	2f	ce-	1a	-tem
2F	-li	.	.	2f	-li	.	.
=6	=6	=6	=6	=6	=6	=6	=6
2F	et	1c	-li	2f	et	1a	fac-
2F	ter-	.	.	2f	ter-	.	.
1BB-	-re,	2B-	et	2.f	-re,	1dd	-to-
.	.	4A	.	.	.	.	.
.	.	4G	.	4g	.	.	.
=7	=7	=7	=7	=7	=7	=7	=7
0r	.	2F	ter-	2a	.	1dd	-rem
.	.	2G	.	1g	vi-	.	.
.	.	1A	.	.	.	1cc	ce-
.	.	.	.	2f	-si-	.	.
=8	=8	=8	=8	=8	=8	=8	=8
1r	.	1G	-re,	2g	-bi-	2b-	-li
.	.	.	.	2.d	.	1b-	et
2GG	vi-	2r	.	.	.	.	.
.	.	.	.	4c	.	.	.
2GG	-si-	[2d	vi-	2B-	-li-	4a	ter-
.	.	.	.	.	.	4g	.
=9	=9	=9	=9	=9	=9	=9	=9
2D	-bi-	4d]	.	1A	-um	0f	-re...
.	.	4d	-si-	.	.	.	.
2D	-li-	2d	-bi-	.	.	.	.
1D	-um	2d	-li-	2B-	om-	.	.
.	.	2d	-um	2A	-ni-	.	.
=10	=10	=10	=10	=10	=10	=10	=10
2E-Xi	om-	1B-	om-	2G	-um	1r	.
2G	-ni-	.	.	1d	et	.	.
1D	-um...	1A	-ni-	.	.	1f	Et
.	.	.	.	2d	in-	.	.
=11	=11	=11	=11	=11	=11	=11	=11
2r	.	1G	-um...	2.B-	-vi-	1g	in
2E-i	in-	.	.	.	.	.	.
.	.	.	.	4c	.	.	.
2D	-vi-	1r	.	2.d	-si-	1b-	u-
2G	-si-	.	.	.	.	.	.
.	.	.	.	4e	.	.	.
=12	=12	=12	=12	=12	=12	=12	=12
2F	-bi-	0r	.	2f	-bi-	0a	-num
2E-i	-li-	.	.	1g	.	.	.
1D	-um	.	.	.	.	.	.
.	.	.	.	2f#Xi	-li-	.	.
=13	=13	=13	=13	=13	=13	=13	=13
2.E-X	Et	2B-	Et	1g	-um.	1.g	do-
.	.	2B-	in	.	.	.	.
4E-Xi	in	.	.	.	.	.	.
2E-Xi	u-	2B-	u-	1r	.	.	.
2D	-num	2B-	-num	.	.	2f	.
=14	=14	=14	=14	=14	=14	=14	=14
2C	do-	2c	do-	2G	Et	1e	-mi-
2C	-mi-	2c	-mi-	2A	in	.	.
1BB-	-num	1F	-num	2B-	u-	[1d	-num
.	.	.	.	2B-	-num	.	.
=15	=15	=15	=15	=15	=15	=15	=15
1BB-	Ie-	2F	Ie-	2B-	do-	1d]	.
.	.	2F	-sum	2B-	-mi-	.	.
1BB-	-sum	2F	Chri-	1B-	-num	1d	Je-
.	.	2F	-stum	.	.	.	.
=16	=16	=16	=16	=16	=16	=16	=16
1D	Chri-	2F	fi-	2A	Je-	1d	-sum
.	.	4F	-li-	2B-	-sum	.	.
.	.	4F	-um	.	.	.	.
2C	-stum	2G	de-	2G	Chri-	[1e	Chri-
2C	fi-	2C	-i	[2c	.	.	.
=17	=17	=17	=17	=17	=17	=17	=17
2C	-li-	2E	u-	2c]	.	2e]	.
2D	-um	2F	-ni-	2B-	.	2d	.
1C	de-	2G	-ge-	[1c	-stum...	1e	.
.	.	2G	-ni-	.	.	.	.
=18	=18	=18	=18	=18	=18	=18	=18
1FF	-i	1F	-tum...	1c]	.	2.f	.
.	.	.	.	.	.	4e	.
2F	u-	1r	.	1r	.	[1d	.
2G	-ni-	.	.	.	.	.	.
=19	=19	=19	=19	=19	=19	=19	=19
2D	-ge-	0r	.	0r	.	2d]	.
2F	-ni-	.	.	.	.	4c	.
.	.	.	.	.	.	4B-	.
1E-X	-tum...	.	.	.	.	1c	.
=20	=20	=20	=20	=20	=20	=20	=20
2.D	de-	2A	De-	2f	Et	[0d	-stum...
.	.	2A	-um	2f	ex	.	.
4D	-um	.	.	.	.	.	.
2D	de	2A	de	2f	pa-	.	.
2D	de-	2A	de-	2f	-tre	.	.
=21	=21	=21	=21	=21	=21	=21	=21
2GG	-o	2B-	-o	2d	na-	0d]	.
2GG	lu-	2B-	lu-	1g	-tum	.	.
2.D	-men	1A	-men	.	.	.	.
.	.	.	.	2f	an-	.	.
4C	.	.	.	.	.	.	.
=22	=22	=22	=22	=22	=22	=22	=22
2BB-	.	2G	de	2g	-te	0r	.
2C	de	1G	lu-	2e	om-	.	.
2AA	lu-	.	.	4f	-ni-	.	.
.	.	.	.	4e	.	.	.
2AA	-mi-	2F#Xi	-mi-	4d	-a	.	.
.	.	.	.	4c	.	.	.
=23	=23	=23	=23	=23	=23	=23	=23
1GG	-ne...	0G	-ne...	2.B-	se-	0b-	Et
.	.	.	.	4c	-cu-	.	.
2r	.	.	.	2d	-la...	.	.
2GG	ge-	.	.	2d	ge-	.	.
=24	=24	=24	=24	=24	=24	=24	=24
2C	-ni-	2r	.	2e	-ni-	1cc	prop-
2C	-tum	2.G	Ge-	2e	-tum	.	.
2E-X	non	.	.	2g	non	1cc	-ter
.	.	4G	-ni-	.	.	.	.
2E-Xi	fac-	2G	-tum	2g	fac-	.	.
=25	=25	=25	=25	=25	=25	=25	=25
1D	-tum	2A	non	2f	-tum	0dd	nos-
.	.	1A	fac-	2f	con-	.	.
2D	con-	.	.	2f	-sub-	.	.
2D	-sub-	2A	-tum	[2f	-stan-	.	.
=26	=26	=26	=26	=26	=26	=26	=26
2BB-	-stan-	2B-	con-	4f]	.	1dd	-tram
.	.	.	.	4f	-ti-	.	.
2BB-	-ti-	2B-	-sub-	2f	-a-	.	.
2BB-	-a-	2B-	-stan-	2f	-lem	1dd	sa-
2BB-	-lem	2B-	-ti-	2f	pa-	.	.
=27	=27	=27	=27	=27	=27	=27	=27
2F	pa-	2.A	-a-	1f	-tri...	2cc	-lu-
2F	-tri,	.	.	.	.	1cc	-tem
.	.	4B-	.	.	.	.	.
2.F	per	2c	-lem	1r	.	.	.
.	.	[2d	pa-	.	.	4b-	de-
4G	.	.	.	.	.	4a	.
=28	=28	=28	=28	=28	=28	=28	=28
1E	.	2d]	.	1r	.	1g	-scen-
.	.	2c#Xi	.	.	.	.	.
2.D	quem	1d	-tri...	2.F	Qui	[1f	.
4D	om-	.	.	4G	.	.	.
=29	=29	=29	=29	=29	=29	=29	=29
2D	-ni-	0r	.	2A	prop-	2f]	.
2BB-	-a-	.	.	1B-	-ter	2d	.
2F	fac-	.	.	.	.	1c	.
2F	-ta	.	.	2A	nos	.	.
=30	=30	=30	=30	=30	=30	=30	=30
1BB-	sunt...	0r	.	2B-	ho-	1.d	.
.	.	.	.	4A	.	.	.
.	.	.	.	4G	.	.	.
2r	.	.	.	2F	.	.	.
[2B-	Et	.	.	2G	.	2B-	.
=31	=31	=31	=31	=31	=31	=31	=31
2B-]	.	0r	.	2D	.	1B-	-dit
4A	.	.	.	1G	.	.	.
4G	.	.	.	.	.	.	.
1A	.	.	.	.	.	1c	de
.	.	.	.	2F#Xi	-mi-	.	.
=32	=32	=32	=32	=32	=32	=32	=32
2G	prop-	2d	et	1G	-nes...	1B-	ce-
2G	-ter	2d	prop-	.	.	.	.
2G	nos-	2d	-ter	2r	.	[1b-	.
2E-Xi	-tram	2e-X	nos-	[2g	de-	.	.
=33	=33	=33	=33	=33	=33	=33	=33
1G	sa-	2d	-tram	2g]	.	1b-]	.
.	.	2B-	sa-	4f	.	.	.
.	.	.	.	4e	.	.	.
1F	-lu-	1c	-lu-	2f	.	1a	.
.	.	.	.	2f	-scen-	.	.
=34	=34	=34	=34	=34	=34	=34	=34
1BB-	-tem...	1B-	-tem	2.d	-dit	0b-	-lis...
.	.	.	.	4e	.	.	.
1r	.	2B-	de-	2f	.	.	.
.	.	2B-	-scen-	2g	de	.	.
=35	=35	=35	=35	=35	=35	=35	=35
0r	.	2c	-dit	2a	ce-	0r	.
.	.	2G	de	1g	.	.	.
.	.	1A	ce-	.	.	.	.
.	.	.	.	2f#Xi	.	.	.
=36	=36	=36	=36	=36	=36	=36	=36
1r	.	1G	-lis.	2.g	-lis	0b-	de
.	.	.	.	4f	Et	.	.
1G	Et	2r	.	2d	in-	.	.
.	.	2G	Et	2e	-car-	.	.
=37	=37	=37	=37	=37	=37	=37	=37
2F	in-	2c	in-	2f	-na-	1a	spi-
2F	-car-	2c	-car-	2f	-tus	.	.
2F	-na-	2c	-na-	1f	est	1a	-ri-
2F	-tus	2c	-tus	.	.	.	.
=38	=38	=38	=38	=38	=38	=38	=38
2G	est.	2B-	est.	2r	.	2g	-tu
2A	de	2c	de	2f	de	1cc	sanc-
1G	spi-	2d	spi-	2g	spi-	.	.
.	.	2d	-ri-	2g	-ri-	2b-	.
=39	=39	=39	=39	=39	=39	=39	=39
2C	-ri-	1c	-tu	1e	-tu	2a	.
2C	-tu	.	.	.	.	2g	.
1F	sanc-	2c	sanc-	1f	sanc-	1a	.
.	.	2c	-to,	.	.	.	.
=40	=40	=40	=40	=40	=40	=40	=40
1BB-	-to,	2d	ex	1d	-to,	1b-	-to
.	.	1B-	Ma-	.	.	.	.
1E-X	ex	.	.	1r	.	1g	ex
.	.	4A	.	.	.	.	.
.	.	4G	.	.	.	.	.
=41	=41	=41	=41	=41	=41	=41	=41
2D	Ma-	2F	-ri-	2.f	ex	1dd	Ma-
2BB-	-ri-	2B-	-a	.	.	.	.
.	.	.	.	4f	Ma-	.	.
1F	-a	2.A	vir-	2f	-ri-	2cc	-ri-
.	.	.	.	2f	-a	[2cc	-a
.	.	4B-	.	.	.	.	.
=42	=42	=42	=42	=42	=42	=42	=42
2r	.	2c	.	2e	vir-	2cc]	.
2BB-	vir-	2d	.	2f	-gi-	2b-	vir-
2C	.	1c	-gi-	1e	-ne	2a	.
2C	-gi-	.	.	.	.	2g	-gi-
=43	=43	=43	=43	=43	=43	=43	=43
2GG	-ne	1B-	-ne	1d	et	1b-	-ne
2G	et	.	.	.	.	.	.
2E	ho-	2r	.	2e	ho-	2g	et
2F	-mo	2A	et	2c	-mo	[2a	ho-
=44	=44	=44	=44	=44	=44	=44	=44
2.D	fac-	2.d	ho-	2.f	fac-	4a]	.
.	.	.	.	.	.	4g	.
.	.	.	.	.	.	4f	.
4E	.	4c	.	4g	.	4e	.
2D	.	2A	.	4a	.	2f	.
.	.	.	.	4f	.	.	.
2C	.	2c	-mo	[2g	.	2e	-mo
=45	=45	=45	=45	=45	=45	=45	=45
1G	.	1B-	fac-	4g]	.	2d	fac-
.	.	.	.	4f	.	.	.
.	.	.	.	2e	.	1g	.
1D	-tus	1A	-tus	1d	-tus	.	.
.	.	.	.	.	.	2f#Xi	-tus
=46	=46	=46	=46	=46	=46	=46	=46
0GGl	est.	0Gl	est.	0dl	est.	0gl	est.
=||	=||	=||	=||	=||	=||	=||	=||
*-	*-	*-	*-	*-	*-	*-	*-
!!!RDF**kern: l=long note in original notation
!!!system-decoration: s1,s2,s3,s4
!!!RDF**kern: i = editorial accidental
!!!ENC: Jesse Rodin
!!!END: 2021/03/25
!!!EED: Jesse Rodin
!!!EEV: 2021/04/28
!!attribution-level@Jos: 2 (provisionally attributable [parentheses checkmark])
!!!ONB: Translated from MusicXML and edited on 2021/04/28 by Craig Sapp
!!muse2ps: T^@{OPR}^u^@{ONM}{. }@{OTL}^C^@{COM}^i2I150v90,90,90,120c122z18l2700t130
